apps/24/baobab.svg

<?xml version="1.0" encoding="UTF-8" standalone="no"?>
<!-- Created with Inkscape (http://www.inkscape.org/) -->

<svg
   xmlns:svg="http://www.w3.org/2000/svg"
   xmlns="http://www.w3.org/2000/svg"
   xmlns:xlink="http://www.w3.org/1999/xlink"
   version="1.0"
   width="24"
   height="24"
   id="svg2471">
  <defs
     id="defs2473">
    <linearGradient
       id="linearGradient6297">
      <stop
         id="stop6299"
         style="stop-color:#dc8378;stop-opacity:1"
         offset="0" />
      <stop
         id="stop6281"
         style="stop-color:#9f3529;stop-opacity:1"
         offset="1" />
    </linearGradient>
    <linearGradient
       id="linearGradient6687">
      <stop
         id="stop6689"
         style="stop-color:white;stop-opacity:1"
         offset="0" />
      <stop
         id="stop6691"
         style="stop-color:white;stop-opacity:0"
         offset="1" />
    </linearGradient>
    <linearGradient
       id="linearGradient6699">
      <stop
         id="stop6701"
         style="stop-color:#f8b17e;stop-opacity:1"
         offset="0" />
      <stop
         id="stop6295"
         style="stop-color:#da3e46;stop-opacity:1"
         offset="1" />
    </linearGradient>
    <linearGradient
       id="linearGradient2456">
      <stop
         id="stop2458"
         style="stop-color:black;stop-opacity:1"
         offset="0" />
      <stop
         id="stop2460"
         style="stop-color:black;stop-opacity:0"
         offset="1" />
    </linearGradient>
    <linearGradient
       x1="-20.75"
       y1="29"
       x2="-19.5"
       y2="18.75"
       id="linearGradient5543"
       xlink:href="#linearGradient6687"
       gradientUnits="userSpaceOnUse"
       gradientTransform="matrix(0.8085144,0,0,0.9677472,27.05858,-10.588843)" />
    <linearGradient
       x1="-20.75"
       y1="29"
       x2="-19.5"
       y2="18.75"
       id="linearGradient5546"
       xlink:href="#linearGradient6687"
       gradientUnits="userSpaceOnUse"
       gradientTransform="matrix(0.8085144,0,0,0.9677475,27.05858,-12.588849)" />
    <linearGradient
       x1="-25.286484"
       y1="17.743382"
       x2="-16.964699"
       y2="32.402924"
       id="linearGradient5559"
       xlink:href="#linearGradient6699"
       gradientUnits="userSpaceOnUse"
       gradientTransform="matrix(0.8314752,0,0,1.0063685,27.496278,-13.609279)" />
    <radialGradient
       cx="28.283663"
       cy="47.400623"
       r="13.804391"
       fx="28.283663"
       fy="47.400623"
       id="radialGradient5563"
       xlink:href="#linearGradient2456"
       gradientUnits="userSpaceOnUse"
       gradientTransform="matrix(0.8692887,0,0,0.6413419,-12.586665,-15.253333)" />
    <linearGradient
       x1="6.4584079"
       y1="3"
       x2="9.3125"
       y2="16.1875"
       id="linearGradient6411"
       xlink:href="#linearGradient6297"
       gradientUnits="userSpaceOnUse" />
  </defs>
  <g
     id="g5512">
    <path
       d="M 24,15.146667 C 24,20.036228 18.627417,24 12,24 5.3725825,24 0,20.036228 0,15.146667 0,10.257106 5.3725825,6.2933335 12,6.2933335 c 6.627417,0 12,3.9637725 12,8.8533335 l 0,0 z"
       id="path1693"
       style="fill:url(#radialGradient5563);fill-opacity:1;fill-rule:evenodd;stroke:none" />
    <path
       d="M 12,2 C 8.0492443,1.9816107 3.8624593,3.8003943 1.90625,7.375 1.0407033,8.8526194 0.95461707,10.583572 1,12.25 0.89339175,14.193518 1.3699082,16.174367 2.59375,17.71875 4.3829242,20.04858 7.1269352,21.412564 10,21.84375 L 10,11 22.96875,11 c -0.0038,-0.208541 -1.26e-4,-0.417779 0,-0.625 C 22.725105,6.8930046 19.981464,4.112621 16.84375,2.90625 15.31094,2.2968394 13.648046,1.9997103 12,2 z"
       id="path6385"
       style="fill:url(#linearGradient6411);fill-opacity:1;fill-rule:nonzero;stroke:none" />
    <path
       d="M 21.655642,10.917529 C 20.509384,7.5094182 16.622675,5 12.000268,5 7.37786,5 3.4911515,7.5094182 2.3448923,10.917529 l -0.3448918,0 0,2.083149 C 2.0000005,17.418803 6.477724,21 12.000268,21 c 5.523077,0 9.999733,-3.581197 9.999733,-7.999322 l 0,-2.083149 -0.344359,0 0,0 z"
       id="path3933"
       style="fill:#b40000;fill-opacity:1;fill-rule:nonzero;stroke:none" />
    <path
       d="m 15,11 0,10.65625 c 4.585061,-1.054142 8,-4.457443 8,-8.59375 L 22.97,11 15,11 z"
       id="path6402"
       style="fill:#285378;fill-opacity:1;fill-rule:nonzero;stroke:none" />
    <path
       d="m 10,18 0,3.84375 c 1.447011,0.223468 2.924761,0.220466 4.34375,-0.03125 0.356328,-0.06051 0.710254,-0.156746 1.0625,-0.25 L 15.40625,18 10,18 z"
       id="path6413"
       style="fill:#5c852f;fill-opacity:1;fill-rule:nonzero;stroke:none" />
    <path
       d="m 22.000001,11 c 0,4.418802 -4.476656,8 -9.999733,8 -5.5230775,0 -10.0002675,-3.581198 -10.0002675,-8 0,-4.4188016 4.477723,-8 10.0002675,-8 5.523077,0 9.999733,3.5811984 9.999733,8 l 0,0 z"
       id="path3935"
       style="fill:url(#linearGradient5559);fill-opacity:1;fill-rule:nonzero;stroke:none" />
    <path
       d="m 15,11 0,9.625 C 19.05567,19.604837 22,16.581133 22,13 l 0,-2 -7,0 z"
       id="path5580"
       style="fill:#3774a5;fill-opacity:1;fill-rule:nonzero;stroke:none" />
    <path
       d="M 22.000001,11 C 22,16.418873 15.491767,18.706379 14.87226,18.676777 L 12.000001,11 l 10,0 z"
       id="path3939"
       style="fill:#8badea;fill-opacity:1;fill-rule:nonzero;stroke:none" />
    <path
       d="M 15.4375,18.5 10,18.8 10,20.84375 C 10.650955,20.950321 11.309682,21 12,21 c 1.208173,0 2.365379,-0.185994 3.4375,-0.5 l 0,-2 z"
       id="path5568"
       style="fill:#7cb040;fill-opacity:1;fill-rule:nonzero;stroke:none" />
    <path
       d="m 12.000001,11 3.45,7.536528 c -2.45,0.702112 -4.95,0.443328 -5.45,0.271318 l 2,-7.807846 z"
       id="path3943"
       style="fill:#d7e866;fill-opacity:1;fill-rule:nonzero;stroke:none" />
    <path
       d="m 21.500044,11.000001 c 0,4.14216 -4.253313,7.500043 -9.500044,7.500043 -5.2467298,0 -9.500044,-3.357883 -9.500044,-7.500043 0,-4.1421607 4.2533142,-7.5000449 9.500044,-7.5000449 5.246731,0 9.500044,3.3578842 9.500044,7.5000449 l 0,0 z"
       id="path5959"
       style="opacity:0.31111115;fill:none;stroke:url(#linearGradient5546);stroke-width:0.99991208;stroke-linecap:butt;stroke-linejoin:miter;stroke-miterlimit:4;stroke-opacity:1;stroke-dasharray:none;stroke-dashoffset:0;marker:none;visibility:visible;display:block;overflow:visible" />
    <path
       d="m 21.500043,12.999999 c 0,4.14216 -4.253314,7.500044 -9.500044,7.500044 -5.2467277,0 -9.5000416,-3.357884 -9.5000416,-7.500044 0,-4.1421586 4.2533139,-7.5000418 9.5000416,-7.5000418 5.24673,0 9.500044,3.3578832 9.500044,7.5000418 l 0,0 z"
       id="path6707"
       style="opacity:0.13333327;fill:none;stroke:url(#linearGradient5543);stroke-width:0.99991477;stroke-linecap:butt;stroke-linejoin:miter;stroke-miterlimit:4;stroke-opacity:1;stroke-dasharray:none;stroke-dashoffset:0;marker:none;visibility:visible;display:block;overflow:visible" />
  </g>
</svg>

<?xml version="1.0" encoding="UTF-8" standalone="no"?>
<!-- Created with Inkscape (http://www.inkscape.org/) -->
<svg
   xmlns:svg="http://www.w3.org/2000/svg"
   xmlns="http://www.w3.org/2000/svg"
   xmlns:xlink="http://www.w3.org/1999/xlink"
   width="24"
   height="24"
   id="svg2471"
   version="1.0">
  <defs
     id="defs2473">
    <linearGradient
       id="linearGradient6297">
      <stop
         style="stop-color:#dc8378;stop-opacity:1;"
         offset="0"
         id="stop6299" />
      <stop
         id="stop6281"
         offset="1"
         style="stop-color:#9f3529;stop-opacity:1;" />
    </linearGradient>
    <linearGradient
       collect="always"
       id="linearGradient6687">
      <stop
         style="stop-color:#ffffff;stop-opacity:1;"
         offset="0"
         id="stop6689" />
      <stop
         style="stop-color:#ffffff;stop-opacity:0;"
         offset="1"
         id="stop6691" />
    </linearGradient>
    <linearGradient
       id="linearGradient6699">
      <stop
         id="stop6701"
         offset="0"
         style="stop-color:#f8b17e;stop-opacity:1;" />
      <stop
         id="stop6295"
         offset="1"
         style="stop-color:#da3e46;stop-opacity:1;" />
    </linearGradient>
    <linearGradient
       collect="always"
       id="linearGradient2456">
      <stop
         style="stop-color:#000000;stop-opacity:1;"
         offset="0"
         id="stop2458" />
      <stop
         style="stop-color:#000000;stop-opacity:0;"
         offset="1"
         id="stop2460" />
    </linearGradient>
    <linearGradient
       collect="always"
       xlink:href="#linearGradient6687"
       id="linearGradient5543"
       gradientUnits="userSpaceOnUse"
       gradientTransform="matrix(0.8085144,0,0,0.9677472,27.05858,-10.588843)"
       x1="-20.75"
       y1="29"
       x2="-19.5"
       y2="18.75" />
    <linearGradient
       collect="always"
       xlink:href="#linearGradient6687"
       id="linearGradient5546"
       gradientUnits="userSpaceOnUse"
       gradientTransform="matrix(0.8085144,0,0,0.9677475,27.05858,-12.588849)"
       x1="-20.75"
       y1="29"
       x2="-19.5"
       y2="18.75" />
    <linearGradient
       collect="always"
       xlink:href="#linearGradient6699"
       id="linearGradient5559"
       gradientUnits="userSpaceOnUse"
       gradientTransform="matrix(0.8314752,0,0,1.0063685,27.496278,-13.609279)"
       x1="-25.286484"
       y1="17.743382"
       x2="-16.964699"
       y2="32.402924" />
    <radialGradient
       collect="always"
       xlink:href="#linearGradient2456"
       id="radialGradient5563"
       gradientUnits="userSpaceOnUse"
       gradientTransform="matrix(0.8692887,0,0,0.6413419,-12.586665,-15.253333)"
       cx="28.283663"
       cy="47.400623"
       fx="28.283663"
       fy="47.400623"
       r="13.804391" />
    <linearGradient
       collect="always"
       xlink:href="#linearGradient6297"
       id="linearGradient6411"
       gradientUnits="userSpaceOnUse"
       x1="6.4584079"
       y1="3"
       x2="9.3125"
       y2="16.1875" />
  </defs>
  <g
     id="g5512">
    <path
       type="arc"
       style="fill:url(#radialGradient5563);fill-opacity:1;fill-rule:evenodd;stroke:none;stroke-width:1px;stroke-linecap:butt;stroke-linejoin:miter;stroke-opacity:1"
       id="path1693"
       cx="32.92857"
       cy="40.714287"
       rx="16.071428"
       ry="11.857142"
       d="M 24,15.146667 C 24,20.036228 18.627417,24 12,24 C 5.3725825,24 2.1175824e-22,20.036228 2.1175824e-22,15.146667 C 2.1175824e-22,10.257106 5.3725825,6.2933335 12,6.2933335 C 18.627417,6.2933335 24,10.257106 24,15.146667 L 24,15.146667 z" />
    <path
       id="path6385"
       d="M 12 2 C 8.0492443 1.9816107 3.8624593 3.8003943 1.90625 7.375 C 1.0407033 8.8526194 0.95461707 10.583572 1 12.25 C 0.89339175 14.193518 1.3699082 16.174367 2.59375 17.71875 C 4.3829242 20.04858 7.1269352 21.412564 10 21.84375 L 10 11 L 22.96875 11 C 22.964929 10.791459 22.968624 10.582221 22.96875 10.375 C 22.725105 6.8930046 19.981464 4.112621 16.84375 2.90625 C 15.31094 2.2968394 13.648046 1.9997103 12 2 z "
       style="fill:url(#linearGradient6411);fill-opacity:1;fill-rule:nonzero;stroke:none;stroke-miterlimit:4;stroke-opacity:1" />
    <path
       r_cy="true"
       r_cx="true"
       style="fill:#b40000;fill-rule:nonzero;stroke:none;stroke-miterlimit:4;fill-opacity:1"
       d="M 21.655642,10.917529 C 20.509384,7.5094182 16.622675,5 12.000268,5 C 7.37786,5 3.4911515,7.5094182 2.3448923,10.917529 L 2.0000005,10.917529 L 2.0000005,13.000678 C 2.0000005,17.418803 6.477724,21 12.000268,21 C 17.523345,21 22.000001,17.418803 22.000001,13.000678 L 22.000001,10.917529 L 21.655642,10.917529 L 21.655642,10.917529 z"
       id="path3933" />
    <path
       id="path6402"
       d="M 15,11 L 15,21.65625 C 19.585061,20.602108 23,17.198807 23,13.0625 L 22.97,11 L 15,11 z"
       style="fill:#285378;fill-opacity:1;fill-rule:nonzero;stroke:none;stroke-miterlimit:4;stroke-opacity:1"
       sodipodi:nodetypes="ccccc" />
    <path
       id="path6413"
       d="M 10 18 L 10 21.84375 C 11.447011 22.067218 12.924761 22.064216 14.34375 21.8125 C 14.700078 21.751989 15.054004 21.655754 15.40625 21.5625 L 15.40625 18 L 10 18 z "
       style="fill:#5c852f;fill-opacity:1;fill-rule:nonzero;stroke:none;stroke-miterlimit:4;stroke-opacity:1" />
    <path
       r_cy="true"
       r_cx="true"
       style="fill:url(#linearGradient5559);fill-opacity:1;fill-rule:nonzero;stroke:none;stroke-miterlimit:4"
       d="M 22.000001,11 C 22.000001,15.418802 17.523345,19 12.000268,19 C 6.4771905,19 2.0000005,15.418802 2.0000005,11 C 2.0000005,6.5811984 6.4777235,3 12.000268,3 C 17.523345,3 22.000001,6.5811984 22.000001,11 L 22.000001,11 z"
       id="path3935" />
    <path
       id="path5580"
       d="M 15 11 L 15 20.625 C 19.05567 19.604837 22 16.581133 22 13 L 22 11 L 15 11 z "
       style="fill:#3774a5;fill-rule:nonzero;stroke:none;stroke-miterlimit:4;fill-opacity:1" />
    <path
       nodetypes="ccccc"
       r_cy="true"
       r_cx="true"
       style="fill:#8badea;fill-opacity:1;fill-rule:nonzero;stroke:none;stroke-miterlimit:4"
       d="M 22.000001,11 C 22,16.418873 15.491767,18.706379 14.87226,18.676777 L 12.000001,11 L 22.000001,11 z"
       id="path3939"
       sodipodi:nodetypes="cccc" />
    <path
       nodetypes="cccscc"
       id="path5568"
       d="M 15.4375,18.5 L 10,18.8 L 10,20.84375 C 10.650955,20.950321 11.309682,21 12,21 C 13.208173,21 14.365379,20.814006 15.4375,20.5 L 15.4375,18.5 z"
       style="fill:#7cb040;fill-rule:nonzero;stroke:none;stroke-miterlimit:4;fill-opacity:1" />
    <path
       r_cy="true"
       r_cx="true"
       style="fill:#d7e866;fill-opacity:1;fill-rule:nonzero;stroke:none;stroke-miterlimit:4"
       d="M 12.000001,11 L 15.450001,18.536528 C 13.000001,19.23864 10.500001,18.979856 10.000001,18.807846 L 12.000001,11 z"
       id="path3943"
       nodetypes="cccc" />
    <path
       r_cy="true"
       r_cx="true"
       type="arc"
       style="opacity:0.31111115;fill:none;fill-opacity:1;fill-rule:evenodd;stroke:url(#linearGradient5546);stroke-width:0.99991208;stroke-linecap:butt;stroke-linejoin:miter;marker:none;marker-start:none;marker-mid:none;marker-end:none;stroke-miterlimit:4;stroke-dasharray:none;stroke-dashoffset:0;stroke-opacity:1;visibility:visible;display:block;overflow:visible"
       id="path5959"
       cx="-18.625"
       cy="24.375"
       rx="11.75"
       ry="7.75"
       d="M 21.500044,11.000001 C 21.500044,15.142161 17.246731,18.500044 12,18.500044 C 6.7532702,18.500044 2.499956,15.142161 2.499956,11.000001 C 2.499956,6.8578403 6.7532702,3.4999561 12,3.4999561 C 17.246731,3.4999561 21.500044,6.8578403 21.500044,11.000001 L 21.500044,11.000001 z" />
    <path
       r_cy="true"
       r_cx="true"
       d="M 21.500043,12.999999 C 21.500043,17.142159 17.246729,20.500043 11.999999,20.500043 C 6.7532713,20.500043 2.4999574,17.142159 2.4999574,12.999999 C 2.4999574,8.8578404 6.7532713,5.4999572 11.999999,5.4999572 C 17.246729,5.4999572 21.500043,8.8578404 21.500043,12.999999 L 21.500043,12.999999 z"
       ry="7.75"
       rx="11.75"
       cy="24.375"
       cx="-18.625"
       id="path6707"
       style="opacity:0.13333327;fill:none;fill-opacity:1;fill-rule:evenodd;stroke:url(#linearGradient5543);stroke-width:0.99991477;stroke-linecap:butt;stroke-linejoin:miter;marker:none;marker-start:none;marker-mid:none;marker-end:none;stroke-miterlimit:4;stroke-dasharray:none;stroke-dashoffset:0;stroke-opacity:1;visibility:visible;display:block;overflow:visible"
       type="arc" />
  </g>
</svg>
